X:1
T:Beneath the Willow
C:Dave Wiesler, tune (2000), Julie Gorka, harmony
M:4/4
L:1/4
Q:1/4=120 Air
K:F
%%staves{RH1 RH2}
V:RH1 clef=treble name="Melody"
V:RH2 clef=treble name="Harmony"
[V:RH1] |:"Dm"a|a d "Gm"g/2f/2e/2d/2|"A"^c/2d/2e/2c/2 A =B/2c/2|"Dm"d/2f/2e/2f/2 "Gm"g f|"A"f e2 a
[V:RH2] |:z|F A B G|A2 A/2G/2F/2E/2|D A B G|A2 E ^C
[V:RH1] |"Dm"a d "Gm"b2-|"C"b c "F"a2|"Gm"g/2f/2e/2d/2 ^c/2d/2c/2d/2|"A"e3:|
[V:RH2] |D E/2F/2G E/2D/2|C D/2E/2 F2|G2 ^G2|A2 A,:|
[V:RH1] |A/2G/2|"D"^F3/2 E/2 D c-|"Gm"c B/2A/2 B G/2F/2|"C"E3/2 D/2 C B-|B "F"A/2G/2 A e/2d/2
[V:RH2] |^C|D2 ^F2|G G/2^F/2 G E/2D/2|C2 E2|F F/2E/2 F ^c/2=B/2
[V:RH1] |"A"^c3/2 =B/2 A g-|"Dm"g f/2e/2 f d/2c/2|"G"=B3/2 A/2 G "E7"f-|f e/2d/2 "A"^c a
[V:RH2] |A2 ^c2|d d/2c/2 d A|G2 =B2|E ^G A ^c
[V:RH1] |"Dm"a d "Gm"g/2f/2e/2d/2|"A"^c/2d/2e/2c/2 A =B/2c/2|"Dm"d/2f/2e/2f/2 "Gm"g f|"A"f e2 a
[V:RH2] |F A B G|A2 A/2G/2F/2E/2|D A B G|A2 E ^C
[V:RH1] |"D/F#"a/2d/2^c/2d/2 "Gm"b/2d/2g/2f/2|"C/E"e/2c/2=B/2c/2 "F"a/2c/2b/2a/2|"Gm"g/2f/2e/2d/2 "A"A ^c|"Dm"d3||
[V:RH2] |D ^F G E/2D/2|C D/2E/2 F A|G ^G A/2=G/2F/2E/2|D3||
